X: 4
T: Whelan's
R: jig
M: 6/8
L: 1/8
K: Edor
|: ~E3 BAF | FEB AFD | ~E3 BAF | dAF FED |~E3 BAF | FEB AFA | BdB BAF | dAF FED :||: B3 ~e3 | fed ~e3 | BAB g3 | fdB AFA |B3 ~e3 | fed e2 f | gbg faf | edB AFD :|


Tune 1447	Setting 25987

